X: 20
T: Opening Song of the Sun Dance (b)
C: Teton Sioux band 1911-1914
N: Derived from sioux020.krn
O: South Dakota, U.S.A.
N: Teton Sioux Music by Frances Densmore, 1918
Z: transcribed to **kern format by Craig Sapp
L: 1/16
M: 2/4
Q: 1/4=58
K: F clef=bass
%%linebreak <none>
F4F D3 [I:setbarnb 2]| 
D8 | 
F2< D2 D A,3 | 
A,8 | 
E4E D3 | 
D8 | 
E2< D2 D A, A,2 | 
D A, A,2 (3:2:5A, G, A, G, G,2 ||  
[M:3/4]G, D, D,4<D,4E,2 ||  
[M:2/4]E, D, D,2D,4- | 
D, A,, D, D, E, D, C,2 | 
E, D, D,2 D, A,, A,,2 | 
A,,2 A,,2 A,,2 A,,2 |]  



